; generated by PrusaSlicer 2.3.0+win64 on 2021-03-10 at 16:29:47 UTC


;
;

;
;
; 

; external perimeters extrusion width = 0.40mm
; perimeters extrusion width = 0.40mm
; infill extrusion width = 0.45mm
; solid infill extrusion width = 0.45mm
; top infill extrusion width = 0.40mm
; first layer extrusion width = 0.42mm

M73 P0 R235
M201 X1250 Y1250 Z400 E5000 ; sets maximum accelerations, mm/sec^2
M203 X180 Y180 Z12 E80 ; sets maximum feedrates, mm/sec
M204 P1250 R1250 T1250 ; sets acceleration (P, T) and retract acceleration (R), mm/sec^2
M205 X8.00 Y8.00 Z2.00 E10.00 ; sets the jerk limits, mm/sec
M205 S0 T0 ; sets the minimum extruding and travel feed rate, mm/sec
M107
;TYPE:Custom
G90 ; use absolute coordinates
M83 ; extruder relative mode
M104 S170 ; set extruder temp for bed leveling
M140 S60 ; set bed temp
M109 R170 ; wait for bed leveling temp
M190 S60 ; wait for bed temp
G28 ; home all without mesh bed level
G29 ; mesh bed leveling 
M104 S215 ; set extruder temp
G92 E0.0
G1 Y-2.0 X179 F2400
G1 Z3 F720
M109 S215 ; wait for extruder temp

; intro line
G1 X170 F1000
G1 Z0.2 F720
G1 X110.0 E8.0 F900
G1 X40.0 E10.0 F700
G92 E0.0

M221 S95 ; set flow
G21 ; set units to millimeters
G90 ; use absolute coordinates
M83 ; use relative distances for extrusion
M900 K0.2 ; Filament gcode LA 1.5
; ; Filament gcode LA 1.0
;LAYER_CHANGE
;Z:0.2
;HEIGHT:0.2
;BEFORE_LAYER_CHANGE
G92 E0.0
;0.2


G1 Z0.200 F9000.000
;AFTER_LAYER_CHANGE
;0.2
G1 E-3.20000 F4200.000
G1 Z0.400 F9000.000
G1 X59.510 Y62.928
G1 Z0.200
G1 E3.20000 F2400.000
M204 S800
;TYPE:Skirt
;WIDTH:0.42
G1 F1200.000
G1 X59.991 Y62.139 E0.02896
G1 X63.098 Y59.030 E0.13782
G1 X63.618 Y58.653 E0.02012
G1 X64.219 Y58.429 E0.02012
G1 X64.733 Y58.371 E0.01621
G1 X79.745 Y58.371 E0.47069
G1 X110.403 Y64.465 E0.98008
G1 X110.914 Y64.681 E0.01740
G1 X111.359 Y65.007 E0.01728
G1 X114.446 Y68.092 E0.13684
G1 X114.783 Y68.532 E0.01740
G1 X115.030 Y69.108 E0.01965
G1 X115.118 Y69.729 E0.01965
G1 X115.108 Y105.961 E1.13605
G1 X114.930 Y106.675 E0.02308
G1 X114.544 Y107.297 E0.02296
G1 X111.400 Y110.451 E0.13961
G1 X110.957 Y110.791 E0.01752
G1 X110.214 Y111.078 E0.02496
G1 X79.841 Y117.123 E0.97103
G1 X64.260 Y117.076 E0.48851
G1 X63.669 Y116.870 E0.01965
G1 X63.149 Y116.513 E0.01977
G1 X60.036 Y113.405 E0.13794
G1 X59.698 Y112.964 E0.01740
G1 X59.450 Y112.381 E0.01989
G1 X59.364 Y111.756 E0.01977
G1 X59.364 Y63.741 E1.50550
G1 X59.499 Y62.987 E0.02402
M204 S1250
; printing object BUTTERFLY.stl id:0 copy 0
G1 E-2.24000 F4200.000
;WIPE_START
G1 F7200.000
G1 X59.991 Y62.139 E-0.54290
G1 X60.462 Y61.668 E-0.36910
;WIPE_END
G1 E-0.04800 F4200.000
G1 Z0.400 F9000.000
G1 X62.905 Y64.912
G1 Z0.200
G1 E3.20000 F2400.000
M204 S800
;TYPE:Perimeter
G1 F1200.000
G1 X65.905 Y64.912 E0.09406
G1 X65.905 Y61.912 E0.09406
G1 X78.577 Y61.912 E0.39731
G1 X78.577 Y64.912 E0.09406
G1 X87.577 Y64.912 E0.28219
G1 X87.577 Y67.912 E0.09406
G1 X90.577 Y67.912 E0.09406
G1 X90.577 Y70.912 E0.09406
G1 X95.905 Y70.912 E0.16707
G1 X95.905 Y67.912 E0.09406
G1 X108.577 Y67.912 E0.39731
G1 X108.577 Y70.912 E0.09406
G1 X111.577 Y70.912 E0.09406
G1 X111.577 Y71.584 E0.02106
G1 X108.577 Y71.584 E0.09406
G1 X108.577 Y80.584 E0.28219
G1 X105.577 Y80.584 E0.09406
G1 X105.577 Y83.584 E0.09406
G1 X102.577 Y83.584 E0.09406
G1 X102.577 Y91.912 E0.26113
G1 X105.577 Y91.912 E0.09406
G1 X105.577 Y94.912 E0.09406
G1 X108.577 Y94.912 E0.09406
G1 X108.577 Y103.912 E0.28219
G1 X111.577 Y103.912 E0.09406
G1 X111.577 Y104.584 E0.02106
G1 X108.577 Y104.584 E0.09406
G1 X108.577 Y107.584 E0.09406
G1 X95.905 Y107.584 E0.39731
G1 X95.905 Y104.584 E0.09406
G1 X90.577 Y104.584 E0.16707
G1 X90.577 Y107.584 E0.09406
G1 X87.577 Y107.584 E0.09406
G1 X87.577 Y110.584 E0.09406
G1 X78.577 Y110.584 E0.28219
G1 X78.577 Y113.584 E0.09406
G1 X65.905 Y113.584 E0.39731
G1 X65.905 Y110.584 E0.09406
G1 X62.905 Y110.584 E0.09406
G1 X62.905 Y109.912 E0.02106
G1 X65.905 Y109.912 E0.09406
G1 X65.905 Y103.912 E0.18813
G1 X68.905 Y103.912 E0.09406
G1 X68.905 Y100.912 E0.09406
G1 X71.905 Y100.912 E0.09406
G1 X71.905 Y97.912 E0.09406
G1 X74.905 Y97.912 E0.09406
G1 X74.905 Y94.912 E0.09406
G1 X77.905 Y94.912 E0.09406
G1 X77.905 Y91.912 E0.09406
G1 X80.905 Y91.912 E0.09406
G1 X80.905 Y83.584 E0.26113
G1 X77.905 Y83.584 E0.09406
G1 X77.905 Y80.584 E0.09406
G1 X74.905 Y80.584 E0.09406
G1 X74.905 Y77.584 E0.09406
G1 X71.905 Y77.584 E0.09406
G1 X71.905 Y74.584 E0.09406
G1 X68.905 Y74.584 E0.09406
G1 X68.905 Y71.584 E0.09406
G1 X65.905 Y71.584 E0.09406
G1 X65.905 Y65.584 E0.18813
G1 X62.905 Y65.584 E0.09406
G1 X62.905 Y64.972 E0.01918
M204 S1250
G1 E-2.24000 F4200.000
;WIPE_START
G1 F7200.000
G1 X64.550 Y64.940 E-0.91200
;WIPE_END
G1 E-0.04800 F4200.000
G1 Z0.400 F9000.000
G1 X78.954 Y64.535
G1 Z0.200
G1 E3.20000 F2400.000
M204 S800
G1 F1200.000
G1 X87.954 Y64.535 E0.28219
G1 X87.954 Y67.535 E0.09406
G1 X90.954 Y67.535 E0.09406
G1 X90.954 Y70.535 E0.09406
G1 X95.528 Y70.535 E0.14342
G1 X95.528 Y67.535 E0.09406
G1 X108.954 Y67.535 E0.42096
G1 X108.954 Y70.535 E0.09406
G1 X111.954 Y70.535 E0.09406
G1 X111.954 Y71.961 E0.04471
G1 X108.954 Y71.961 E0.09406
G1 X108.954 Y80.961 E0.28219
G1 X105.954 Y80.961 E0.09406
G1 X105.954 Y83.961 E0.09406
G1 X102.954 Y83.961 E0.09406
G1 X102.954 Y91.535 E0.23748
G1 X105.954 Y91.535 E0.09406
G1 X105.954 Y94.535 E0.09406
G1 X108.954 Y94.535 E0.09406
G1 X108.954 Y103.535 E0.28219
G1 X111.954 Y103.535 E0.09406
G1 X111.954 Y104.961 E0.04471
G1 X108.954 Y104.961 E0.09406
G1 X108.954 Y107.961 E0.09406
G1 X95.528 Y107.961 E0.42096
G1 X95.528 Y104.961 E0.09406
G1 X90.954 Y104.961 E0.14342
G1 X90.954 Y107.961 E0.09406
G1 X87.954 Y107.961 E0.09406
G1 X87.954 Y110.961 E0.09406
G1 X78.954 Y110.961 E0.28219
G1 X78.954 Y113.961 E0.09406
G1 X65.528 Y113.961 E0.42096
G1 X65.528 Y110.961 E0.09406
G1 X62.528 Y110.961 E0.09406
G1 X62.528 Y109.535 E0.04471
G1 X65.528 Y109.535 E0.09406
G1 X65.528 Y103.535 E0.18813
G1 X68.528 Y103.535 E0.09406
G1 X68.528 Y100.535 E0.09406
G1 X71.528 Y100.535 E0.09406
G1 X71.528 Y97.535 E0.09406
G1 X74.528 Y97.535 E0.09406
G1 X74.528 Y94.535 E0.09406
G1 X77.528 Y94.535 E0.09406
G1 X77.528 Y91.535 E0.09406
G1 X80.528 Y91.535 E0.09406
G1 X80.528 Y83.961 E0.23748
G1 X77.528 Y83.961 E0.09406
G1 X77.528 Y80.961 E0.09406
G1 X74.528 Y80.961 E0.09406
G1 X74.528 Y77.961 E0.09406
G1 X71.528 Y77.961 E0.09406
G1 X71.528 Y74.961 E0.09406
G1 X68.528 Y74.961 E0.09406
G1 X68.528 Y71.961 E0.09406
G1 X65.528 Y71.961 E0.09406
G1 X65.528 Y65.961 E0.18813
G1 X62.528 Y65.961 E0.09406
M73 P0 R234
G1 X62.528 Y64.535 E0.04471
G1 X65.528 Y64.535 E0.09406
G1 X65.528 Y61.535 E0.09406
G1 X78.954 Y61.535 E0.42096
G1 X78.954 Y64.475 E0.09218
M204 S1250
G1 X79.331 Y64.158 F9000.000
M204 S800
;TYPE:External perimeter
G1 F1200.000
G1 X88.331 Y64.158 E0.28219
G1 X88.331 Y67.158 E0.09406
G1 X91.331 Y67.158 E0.09406
G1 X91.331 Y70.158 E0.09406
G1 X95.151 Y70.158 E0.11977
G1 X95.151 Y67.158 E0.09406
G1 X109.331 Y67.158 E0.44460
G1 X109.331 Y70.158 E0.09406
G1 X112.331 Y70.158 E0.09406
G1 X112.331 Y72.338 E0.06835
G1 X109.331 Y72.338 E0.09406
G1 X109.331 Y81.338 E0.28219
G1 X106.331 Y81.338 E0.09406
G1 X106.331 Y84.338 E0.09406
G1 X103.331 Y84.338 E0.09406
G1 X103.331 Y91.158 E0.21384
G1 X106.331 Y91.158 E0.09406
G1 X106.331 Y94.158 E0.09406
G1 X109.331 Y94.158 E0.09406
G1 X109.331 Y103.158 E0.28219
G1 X112.331 Y103.158 E0.09406
G1 X112.331 Y105.338 E0.06835
G1 X109.331 Y105.338 E0.09406
G1 X109.331 Y108.338 E0.09406
G1 X95.151 Y108.338 E0.44460
G1 X95.151 Y105.338 E0.09406
G1 X91.331 Y105.338 E0.11977
G1 X91.331 Y108.338 E0.09406
G1 X88.331 Y108.338 E0.09406
G1 X88.331 Y111.338 E0.09406
G1 X79.331 Y111.338 E0.28219
G1 X79.331 Y114.338 E0.09406
G1 X65.151 Y114.338 E0.44460
G1 X65.151 Y111.338 E0.09406
G1 X62.151 Y111.338 E0.09406
G1 X62.151 Y109.158 E0.06835
G1 X65.151 Y109.158 E0.09406
G1 X65.151 Y103.158 E0.18813
G1 X68.151 Y103.158 E0.09406
G1 X68.151 Y100.158 E0.09406
G1 X71.151 Y100.158 E0.09406
G1 X71.151 Y97.158 E0.09406
G1 X74.151 Y97.158 E0.09406
G1 X74.151 Y94.158 E0.09406
G1 X77.151 Y94.158 E0.09406
G1 X77.151 Y91.158 E0.09406
G1 X80.151 Y91.158 E0.09406
G1 X80.151 Y84.338 E0.21384
G1 X77.151 Y84.338 E0.09406
G1 X77.151 Y81.338 E0.09406
G1 X74.151 Y81.338 E0.09406
G1 X74.151 Y78.338 E0.09406
G1 X71.151 Y78.338 E0.09406
G1 X71.151 Y75.338 E0.09406
G1 X68.151 Y75.338 E0.09406
G1 X68.151 Y72.338 E0.09406
G1 X65.151 Y72.338 E0.09406
G1 X65.151 Y66.338 E0.18813
G1 X62.151 Y66.338 E0.09406
G1 X62.151 Y64.158 E0.06835
G1 X65.151 Y64.158 E0.09406
G1 X65.151 Y61.158 E0.09406
G1 X79.331 Y61.158 E0.44460
G1 X79.331 Y64.098 E0.09218
M204 S1250
G1 X79.506 Y64.518 F9000.000
G1 E-2.24000 F4200.000
;WIPE_START
G1 F7200.000
G1 X80.977 Y64.109 E-0.91200
;WIPE_END
G1 E-0.04800 F4200.000
G1 Z0.400 F9000.000
G1 X78.096 Y62.026
G1 Z0.200
G1 E3.20000 F2400.000
M204 S800
;TYPE:Solid infill
;WIDTH:0.422197
G1 F1200.000
G1 X78.294 Y62.223 E0.00883
G1 X78.294 Y62.760 E0.01692
G1 X77.729 Y62.195 E0.02518
G1 X77.193 Y62.195 E0.01692
G1 X78.294 Y63.296 E0.04910
G1 X78.294 Y63.833 E0.01692
G1 X76.657 Y62.195 E0.07303
G1 X76.120 Y62.195 E0.01692
G1 X78.464 Y64.539 E0.10452
M204 S1250
G1 E-2.24000 F4200.000
;WIPE_START
G1 F7200.000
G1 X77.300 Y63.375 E-0.91200
;WIPE_END
G1 E-0.04800 F4200.000
G1 Z0.400 F9000.000
G1 X86.996 Y65.026
G1 Z0.200
G1 E3.20000 F2400.000
M204 S800
G1 F1200.000
G1 X87.294 Y65.323 E0.01328
G1 X87.294 Y65.860 E0.01692
G1 X86.630 Y65.195 E0.02963
G1 X86.093 Y65.195 E0.01692
G1 X87.294 Y66.396 E0.05356
G1 X87.294 Y66.932 E0.01692
G1 X85.557 Y65.195 E0.07748
G1 X85.020 Y65.195 E0.01692
G1 X87.464 Y67.638 E0.10897
M204 S1250
G1 E-2.24000 F4200.000
;WIPE_START
G1 F7200.000
G1 X86.300 Y66.475 E-0.91200
;WIPE_END
G1 E-0.04800 F4200.000
G1 Z0.400 F9000.000
G1 X89.996 Y68.026
G1 Z0.200
G1 E3.20000 F2400.000
M204 S800
G1 F1200.000
G1 X90.294 Y68.323 E0.01328
G1 X90.294 Y68.860 E0.01692
G1 X89.630 Y68.195 E0.02963
G1 X89.093 Y68.195 E0.01692
G1 X90.294 Y69.396 E0.05356
G1 X90.294 Y69.932 E0.01692
G1 X88.557 Y68.195 E0.07748
G1 X88.020 Y68.195 E0.01692
G1 X90.464 Y70.638 E0.10897
M204 S1250
G1 E-2.24000 F4200.000
;WIPE_START
G1 F7200.000
G1 X89.300 Y69.475 E-0.91200
;WIPE_END
G1 E-0.04800 F4200.000
G1 Z0.400 F9000.000
G1 X107.697 Y68.026
G1 Z0.200
G1 E3.20000 F2400.000
M204 S800
G1 F1200.000
G1 X108.294 Y68.623 E0.02664
G1 X108.294 Y69.159 E0.01692
G1 X107.330 Y68.195 E0.04299
G1 X106.794 Y68.195 E0.01692
G1 X108.294 Y69.696 E0.06691
G1 X108.294 Y70.232 E0.01692
G1 X106.257 Y68.195 E0.09084
G1 X105.721 Y68.195 E0.01692
G1 X108.294 Y70.768 E0.11476
G1 X108.294 Y70.797 E0.00090
G1 X108.105 Y70.797 E0.00595
G1 X108.105 Y71.116 E0.01007
G1 X105.184 Y68.195 E0.13027
G1 X104.648 Y68.195 E0.01692
G1 X108.294 Y71.841 E0.16260
G1 X108.294 Y72.377 E0.01692
G1 X104.112 Y68.195 E0.18653
G1 X103.575 Y68.195 E0.01692
G1 X108.294 Y72.914 E0.21045
G1 X108.294 Y73.450 E0.01692
G1 X103.039 Y68.195 E0.23437
G1 X102.503 Y68.195 E0.01692
G1 X108.294 Y73.987 E0.25829
G1 X108.294 Y74.523 E0.01692
G1 X101.966 Y68.195 E0.28222
G1 X101.430 Y68.195 E0.01692
G1 X108.294 Y75.059 E0.30614
G1 X108.294 Y75.596 E0.01692
G1 X100.893 Y68.195 E0.33006
G1 X100.357 Y68.195 E0.01692
G1 X108.294 Y76.132 E0.35398
G1 X108.294 Y76.668 E0.01692
G1 X99.821 Y68.195 E0.37791
G1 X99.284 Y68.195 E0.01692
G1 X108.294 Y77.205 E0.40183
G1 X108.294 Y77.741 E0.01692
G1 X98.748 Y68.195 E0.42575
G1 X98.212 Y68.195 E0.01692
G1 X108.294 Y78.278 E0.44967
G1 X108.294 Y78.814 E0.01692
G1 X97.675 Y68.195 E0.47360
G1 X97.139 Y68.195 E0.01692
G1 X108.294 Y79.350 E0.49752
G1 X108.294 Y79.887 E0.01692
G1 X96.602 Y68.195 E0.52144
G1 X96.188 Y68.195 E0.01307
G1 X96.188 Y68.317 E0.00384
G1 X108.172 Y80.301 E0.53450
G1 X107.636 Y80.301 E0.01692
G1 X96.188 Y68.853 E0.51058
G1 X96.188 Y69.390 E0.01692
G1 X107.099 Y80.301 E0.48665
G1 X106.563 Y80.301 E0.01692
G1 X96.188 Y69.926 E0.46273
G1 X96.188 Y70.463 E0.01692
G1 X106.027 Y80.301 E0.43881
G1 X105.490 Y80.301 E0.01692
G1 X96.188 Y70.999 E0.41489
G1 X96.188 Y71.195 E0.00619
G1 X95.848 Y71.195 E0.01072
G1 X105.294 Y80.641 E0.42130
G1 X105.294 Y81.178 E0.01692
G1 X95.311 Y71.195 E0.44522
G1 X94.775 Y71.195 E0.01692
G1 X105.294 Y81.714 E0.46914
G1 X105.294 Y82.251 E0.01692
G1 X94.239 Y71.195 E0.49307
G1 X93.702 Y71.195 E0.01692
G1 X105.294 Y82.787 E0.51699
G1 X105.294 Y83.301 E0.01622
G1 X105.272 Y83.301 E0.00069
G1 X93.166 Y71.195 E0.53993
G1 X92.630 Y71.195 E0.01692
G1 X104.736 Y83.301 E0.53993
G1 X104.199 Y83.301 E0.01692
G1 X92.093 Y71.195 E0.53993
G1 X91.557 Y71.195 E0.01692
G1 X103.663 Y83.301 E0.53993
G1 X103.126 Y83.301 E0.01692
G1 X90.851 Y71.026 E0.54750
M204 S1250
G1 E-2.24000 F4200.000
;WIPE_START
G1 F7200.000
G1 X92.014 Y72.189 E-0.91200
;WIPE_END
G1 E-0.04800 F4200.000
G1 Z0.400 F9000.000
G1 X84.314 Y65.026
G1 Z0.200
G1 E3.20000 F2400.000
M204 S800
G1 F1200.000
G1 X102.590 Y83.301 E0.81510
G1 X102.294 Y83.301 E0.00934
G1 X102.294 Y83.542 E0.00758
G1 X83.948 Y65.195 E0.81825
G1 X83.411 Y65.195 E0.01692
G1 X102.294 Y84.078 E0.84217
G1 X102.294 Y84.614 E0.01692
G1 X82.875 Y65.195 E0.86609
G1 X82.338 Y65.195 E0.01692
G1 X102.294 Y85.151 E0.89002
G1 X102.294 Y85.687 E0.01692
G1 X81.802 Y65.195 E0.91394
G1 X81.266 Y65.195 E0.01692
G1 X102.294 Y86.223 E0.93786
G1 X102.294 Y86.760 E0.01692
G1 X80.729 Y65.195 E0.96178
G1 X80.193 Y65.195 E0.01692
G1 X102.294 Y87.296 E0.98571
G1 X102.294 Y87.833 E0.01692
G1 X79.657 Y65.195 E1.00963
G1 X79.120 Y65.195 E0.01692
G1 X102.294 Y88.369 E1.03355
G1 X102.294 Y88.905 E0.01692
G1 X75.584 Y62.195 E1.19127
M73 P0 R233
G1 X75.047 Y62.195 E0.01692
G1 X102.294 Y89.442 E1.21520
G1 X102.294 Y89.978 E0.01692
G1 X74.511 Y62.195 E1.23912
G1 X73.975 Y62.195 E0.01692
G1 X102.294 Y90.514 E1.26304
G1 X102.294 Y91.051 E0.01692
G1 X73.438 Y62.195 E1.28696
G1 X72.902 Y62.195 E0.01692
G1 X102.464 Y91.757 E1.31845
M204 S1250
G1 E-2.24000 F4200.000
;WIPE_START
G1 F7200.000
G1 X101.300 Y90.593 E-0.91200
;WIPE_END
G1 E-0.04800 F4200.000
G1 Z0.400 F9000.000
G1 X104.878 Y92.026
G1 Z0.200
G1 E3.20000 F2400.000
M204 S800
G1 F1200.000
G1 X105.294 Y92.442 E0.01856
G1 X105.294 Y92.978 E0.01692
G1 X104.511 Y92.195 E0.03492
G1 X103.975 Y92.195 E0.01692
G1 X105.294 Y93.514 E0.05884
G1 X105.294 Y94.051 E0.01692
G1 X103.438 Y92.195 E0.08276
G1 X102.902 Y92.195 E0.01692
G1 X105.464 Y94.757 E0.11425
M204 S1250
G1 E-2.24000 F4200.000
;WIPE_START
G1 F7200.000
G1 X104.300 Y93.593 E-0.91200
;WIPE_END
G1 E-0.04800 F4200.000
G1 Z0.400 F9000.000
G1 X107.878 Y95.026
G1 Z0.200
G1 E3.20000 F2400.000
M204 S800
G1 F1200.000
G1 X108.294 Y95.442 E0.01856
G1 X108.294 Y95.978 E0.01692
G1 X107.511 Y95.195 E0.03492
G1 X106.975 Y95.195 E0.01692
G1 X108.294 Y96.514 E0.05884
G1 X108.294 Y97.051 E0.01692
G1 X106.438 Y95.195 E0.08276
G1 X105.902 Y95.195 E0.01692
G1 X108.294 Y97.587 E0.10668
G1 X108.294 Y98.124 E0.01692
G1 X72.366 Y62.195 E1.60241
G1 X71.829 Y62.195 E0.01692
G1 X108.294 Y98.660 E1.62633
G1 X108.294 Y99.196 E0.01692
G1 X71.293 Y62.195 E1.65025
G1 X70.756 Y62.195 E0.01692
G1 X108.294 Y99.733 E1.67418
G1 X108.294 Y100.269 E0.01692
G1 X70.220 Y62.195 E1.69810
M73 P1 R233
G1 X69.684 Y62.195 E0.01692
G1 X108.294 Y100.806 E1.72202
G1 X108.294 Y101.342 E0.01692
G1 X69.147 Y62.195 E1.74594
G1 X68.611 Y62.195 E0.01692
G1 X108.294 Y101.878 E1.76987
G1 X108.294 Y102.415 E0.01692
G1 X68.075 Y62.195 E1.79379
G1 X67.538 Y62.195 E0.01692
G1 X108.294 Y102.951 E1.81771
G1 X108.294 Y103.487 E0.01692
G1 X67.002 Y62.195 E1.84163
G1 X66.465 Y62.195 E0.01692
G1 X108.105 Y103.835 E1.85715
G1 X108.105 Y104.372 E0.01692
G1 X66.188 Y62.454 E1.86953
G1 X66.188 Y62.990 E0.01692
G1 X108.294 Y105.097 E1.87793
G1 X108.294 Y105.633 E0.01692
G1 X66.188 Y63.527 E1.87793
G1 X66.188 Y64.063 E0.01692
G1 X108.294 Y106.169 E1.87793
G1 X108.294 Y106.706 E0.01692
G1 X66.188 Y64.600 E1.87793
M73 P1 R232
G1 X66.188 Y64.797 E0.00622
G1 X66.376 Y64.797 E0.00595
G1 X66.376 Y65.325 E0.01665
G1 X108.294 Y107.242 E1.86953
G1 X108.294 Y107.301 E0.00187
G1 X107.817 Y107.301 E0.01505
G1 X66.215 Y65.700 E1.85543
G1 X66.188 Y65.700 E0.00087
G1 X66.188 Y66.209 E0.01605
G1 X107.280 Y107.301 E1.83273
G1 X106.744 Y107.301 E0.01692
